public/images/skype.svg

<svg fill="none" height="90" viewBox="0 0 90 90" width="90" xmlns="http://www.w3.org/2000/svg"><path d="m49.9124 76.5c-4.9587.7746-10.0301.3673-14.8016-1.1886-4.7715-1.556-9.1081-4.2167-12.6569-7.7655s-6.2094-7.8854-7.7654-12.6569c-1.5559-4.7714-1.9632-9.8429-1.1886-14.8015-1.9548-3.7181-2.6691-7.9639-2.0385-12.1169.6306-4.1531 2.573-7.9955 5.5432-10.9658 2.9703-2.9703 6.8128-4.9127 10.9658-5.5433 4.153-.6305 8.3989.0838 12.117 2.0385 4.9586-.7746 10.03-.3673 14.8015 1.1887 4.7715 1.5559 9.1081 4.2166 12.6569 7.7654s6.2094 7.8854 7.7654 12.6569c1.556 4.7714 1.9632 9.8429 1.1887 14.8015 1.9547 3.7181 2.669 7.9639 2.0384 12.117-.6306 4.153-2.5729 7.9954-5.5432 10.9657s-6.8128 4.9127-10.9658 5.5433-8.3989-.0837-12.1169-2.0385zm-4.7175-12.165h-.15c10.77 0 16.1362-5.1975 16.1362-12.1612 0-4.4925-2.0662-9.2663-10.2225-11.0925l-7.4362-1.65c-2.8313-.645-6.0825-1.5-6.0825-4.1813 0-2.6812 2.325-4.5487 6.465-4.5487 8.3625 0 7.6012 5.73 11.7412 5.73 2.16 0 4.0988-1.2825 4.0988-3.4875 0-5.1375-8.2388-9-15.21-9-7.5788 0-15.6488 3.2212-15.6488 11.79 0 4.1175 1.4775 8.5125 9.6 10.5487l10.0838 2.5163c3.06.7575 3.8175 2.4712 3.8175 4.02 0 2.5762-2.565 5.0925-7.1925 5.0925-9.0638 0-7.7925-6.9638-12.6525-6.9638-2.175 0-3.7613 1.4925-3.7613 3.6413 0 4.1775 5.07 9.7425 16.4138 9.7425z" fill="#000"/></svg>

<svg width="90" height="90" viewBox="0 0 90 90" fill="none" xmlns="http://www.w3.org/2000/svg">
<path d="M49.9124 76.5C44.9537 77.2746 39.8823 76.8673 35.1108 75.3114C30.3393 73.7554 26.0027 71.0947 22.4539 67.5459C18.9051 63.9971 16.2445 59.6605 14.6885 54.889C13.1326 50.1176 12.7253 45.0461 13.4999 40.0875C11.5451 36.3694 10.8308 32.1236 11.4614 27.9706C12.092 23.8175 14.0344 19.9751 17.0046 17.0048C19.9749 14.0345 23.8174 12.0921 27.9704 11.4615C32.1234 10.831 36.3693 11.5453 40.0874 13.5C45.046 12.7254 50.1174 13.1327 54.8889 14.6887C59.6604 16.2446 63.997 18.9053 67.5458 22.4541C71.0946 26.0029 73.7552 30.3395 75.3112 35.111C76.8672 39.8824 77.2744 44.9539 76.4999 49.9125C78.4546 53.6306 79.1689 57.8764 78.5383 62.0295C77.9077 66.1825 75.9654 70.0249 72.9951 72.9952C70.0248 75.9655 66.1823 77.9079 62.0293 78.5385C57.8763 79.1691 53.6304 78.4548 49.9124 76.5ZM45.1949 64.335H45.0449C55.8149 64.335 61.1811 59.1375 61.1811 52.1738C61.1811 47.6813 59.1149 42.9075 50.9586 41.0813L43.5224 39.4313C40.6911 38.7863 37.4399 37.9313 37.4399 35.25C37.4399 32.5688 39.7649 30.7013 43.9049 30.7013C52.2674 30.7013 51.5061 36.4313 55.6461 36.4313C57.8061 36.4313 59.7449 35.1488 59.7449 32.9438C59.7449 27.8063 51.5061 23.9438 44.5349 23.9438C36.9561 23.9438 28.8861 27.165 28.8861 35.7338C28.8861 39.8513 30.3636 44.2463 38.4861 46.2825L48.5699 48.7988C51.6299 49.5563 52.3874 51.27 52.3874 52.8188C52.3874 55.395 49.8224 57.9113 45.1949 57.9113C36.1311 57.9113 37.4024 50.9475 32.5424 50.9475C30.3674 50.9475 28.7811 52.44 28.7811 54.5888C28.7811 58.7663 33.8511 64.3313 45.1949 64.3313V64.335Z" fill="black"/>
</svg>
